resources/haticons/SVG/googlehangouts.svg

<!-- Generated by IcoMoon.io -->
<svg version="1.1" xmlns="http://www.w3.org/2000/svg" width="24" height="24" viewBox="0 0 24 24">
<title>googlehangouts</title>
<path fill="#0c9d58" d="M12 0c-5.8 0-10.5 4.7-10.5 10.5 0 5.5 5 10 10.5 10v3.5c6.35-3.1 10.5-8.2 10.5-13.5 0-5.8-4.7-10.5-10.5-10.5zM11.5 12c0 1.4-0.9 2.5-2 2.5v-2.5h-2.5v-4.5h4.5zM17.5 12c0 1.4-0.9 2.5-2 2.5v-2.5h-2.5v-4.5h4.5z"></path>
</svg>

<svg xmlns="http://www.w3.org/2000/svg" width="24" height="24"><path fill="#0c9d58" d="M12 0C6.2 0 1.5 4.7 1.5 10.5c0 5.5 5 10 10.5 10V24c6.35-3.1 10.5-8.2 10.5-13.5C22.5 4.7 17.8 0 12 0zm-.5 12c0 1.4-.9 2.5-2 2.5V12H7V7.5h4.5zm6 0c0 1.4-.9 2.5-2 2.5V12H13V7.5h4.5z"/></svg>
